X: 4295
M: C|
L: 1/8
K: G
[1,3 cBcd edcB | AGFE D2 :|\
[2,4 cedc BAGF | A2G2G2 |:\
(FE) |\
dgfg egfg | dgfg egfg |\
dgdB dcAF | A2G2G2 :|


